X:1
T:Title
%%score ( 1 2 ) ( 3 4 )
L:1/8
Q:1/4=90
M:4/4
K:Db
V:1 treble nm="Strings 1, Soprano"
V:2 treble 
V:3 bass nm="Strings 1, Bass"
V:4 bass 
V:1
 z4 z2 z A | DDD[DE] [DF] [FA]2 [FA] | [GB][Gd] [Gd]>[GB] [FA]3 [FA] | %3
w: 1.~I~|heard~ God's~ voice~ com mand ing,~ "Go~|up,~ the~ land~ pos sess,"~ And~|
 [GB][FA][FA][DF] [GB][FA][FA][DF] | [CE]6 z [CA] | [DF][DF][DF][EG] [FA] [Fd]2 [FA] | %6
w: trust ing~ in~ His~ grace~ I~ fol lowed~|on;~ From~|E gypt's~ cru el~ bond age~ and~|
 [GB][Gd] [Gd]>[GB] [FA]3 [FA] | [GB][GB][Gc][Gd] [=Ge][GB][_Gc][GA] | [Fd]6 z A | d>d dA B A2 D | %10
w: from~ the~ wil der ness,~ From~|Ka desh~ in to~ Ca naan~ I~ have~|gone.~ *||
 [DF]>[DF] [DF][D_F] [D=F]2 z A | d>d dA B A2 A | [=Ge][Bd][Ac][GB] A2 z E | D>D DE F A2 A | %14
w: ||||
 [Af]>[Af] [Ge][Fd] [DB]3 [GB] | [Gd][Gd][Gc][GB] [FA]2 [Af]2 | e2- [Ge]2 [Fd]4 |] %17
w: |||
V:2
 x8 | x8 | x8 | x8 | x8 | x8 | x8 | x8 | x8 | x8 | x8 | x8 | x8 | x8 | x8 | x8 | A2 z2 z4 |] %17
V:3
 z4 z2 z A, | [D,F,][D,F,][D,F,][D,G,] [D,A,] [D,D]2 [D,D] | %2
 [G,D][G,B,] [G,B,]>[D,D] [D,D]3 [D,D] | [D,D][D,D][D,D][D,A,] [D,D][D,D][D,D][F,A,] | %4
 A,6 z [A,,A,] | [D,A,][D,A,][D,A,][D,D] [D,D] [D,A,]2 [D,D] | %6
 [G,D][G,B,] [G,B,]>[G,D] [D,D]3 [D,D] | [G,D][G,D][G,A,][G,B,] [E,B,][E,E][A,E][A,C] | %8
 [D,A,D]6 z A, | D>D DA, B,[K:bass] A,2 [D,F,] | [D,A,]>[D,A,] [D,A,][D,=G,] [D,A,]2 z A, | %11
 D>D DA, B,[K:bass] A,2 A, | z4 C2 z2 | D,>D, D,E, F, A,2 A, | %14
 [D,D]>[D,D] [E,C][F,_C] [G,B,]3 [G,D] | [G,B,][G,B,][G,D][G,D] [A,D]2 [A,D]2 | [A,C]4 [D,A,]4 |] %17
V:4
 x8 | x8 | x8 | x8 | x8 | x8 | x8 | x8 | x8 | x5[K:bass] x3 | x8 | x5[K:bass] x3 | %12
 [E,B,][E,E][E,E][E,D] A,G,F,E, | x8 | x8 | x8 | x8 |] %17

